addons/board/static/description/icon.svg

<svg width="50" height="50" viewBox="0 0 50 50" fill="none" xmlns="http://www.w3.org/2000/svg">
<path d="M4 8C4 5.79086 5.79086 4 8 4H25V21C25 23.2091 23.2091 25 21 25H4V8Z" fill="var(--o-icons-magenta-pure, #FF689E)"/>
<path d="M4 8C4 5.79086 5.79086 4 8 4H25V21C25 23.2091 23.2091 25 21 25H4V8Z" fill="url(#white_gradient_1)" fill-opacity="0.4"/>
<path d="M4 35C4 32.7909 5.79086 31 8 31H19V42C19 44.2091 17.2091 46 15 46H4V35Z" fill="var(--o-icons-magenta-magenta, #FF2A62)"/>
<path d="M4 35C4 32.7909 5.79086 31 8 31H19V42C19 44.2091 17.2091 46 15 46H4V35Z" fill="url(#white_gradient_2)" fill-opacity="0.3"/>
<path d="M25 46H29C31.2091 46 33 44.2091 33 42V31H29C26.7909 31 25 32.7909 25 35V46Z" fill="var(--o-icons-yellow-pure, #FBB130)"/>
<path d="M25 46H29C31.2091 46 33 44.2091 33 42V31H29C26.7909 31 25 32.7909 25 35V46Z" fill="url(#white_gradient_3)" fill-opacity="0.2"/>
<path d="M31 17L31 21C31 23.2091 32.7909 25 35 25L46 25V21C46 18.7909 44.2091 17 42 17L31 17Z" fill="var(--o-icons-cyan-cyan, #03AAE9)"/>
<path d="M31 17L31 21C31 23.2091 32.7909 25 35 25L46 25V21C46 18.7909 44.2091 17 42 17L31 17Z" fill="url(#white_gradient_4)" fill-opacity="0.3"/>
<path d="M31 4L31 8C31 10.2091 32.7909 12 35 12L46 12V8C46 5.79086 44.2091 4 42 4L31 4Z" fill="var(--o-icons-cyan-pure, #1BD4F9)"/>
<path d="M31 4L31 8C31 10.2091 32.7909 12 35 12L46 12V8C46 5.79086 44.2091 4 42 4L31 4Z" fill="url(#white_gradient_5)" fill-opacity="0.3"/>
<path d="M38 46H42C44.2091 46 46 44.2091 46 42V31H42C39.7909 31 38 32.7909 38 35V46Z" fill="var(--o-icons-yellow-yellow, #ED7609)"/>
<path d="M38 46H42C44.2091 46 46 44.2091 46 42V31H42C39.7909 31 38 32.7909 38 35V46Z" fill="url(#white_gradient_6)" fill-opacity="0.3"/>
<defs>
<linearGradient id="white_gradient_1" x1="4" y1="4" x2="28.7059" y2="10.1765" gradientUnits="userSpaceOnUse">
<stop stop-color="white"/>
<stop offset="1" stop-color="white" stop-opacity="0"/>
</linearGradient>
<linearGradient id="white_gradient_2" x1="4" y1="31" x2="21.6471" y2="35.4118" gradientUnits="userSpaceOnUse">
<stop stop-color="white"/>
<stop offset="1" stop-color="white" stop-opacity="0"/>
</linearGradient>
<linearGradient id="white_gradient_3" x1="25" y1="31" x2="34.8253" y2="32.31" gradientUnits="userSpaceOnUse">
<stop stop-color="white"/>
<stop offset="1" stop-color="white" stop-opacity="0"/>
</linearGradient>
<linearGradient id="white_gradient_4" x1="31" y1="17" x2="46.3723" y2="24.2058" gradientUnits="userSpaceOnUse">
<stop stop-color="white"/>
<stop offset="1" stop-color="white" stop-opacity="0"/>
</linearGradient>
<linearGradient id="white_gradient_5" x1="31" y1="4" x2="46.3723" y2="11.2058" gradientUnits="userSpaceOnUse">
<stop stop-color="white"/>
<stop offset="1" stop-color="white" stop-opacity="0"/>
</linearGradient>
<linearGradient id="white_gradient_6" x1="38" y1="31" x2="47.8253" y2="32.31" gradientUnits="userSpaceOnUse">
<stop stop-color="white"/>
<stop offset="1" stop-color="white" stop-opacity="0"/>
</linearGradient>
</defs>
</svg>

<svg width="50" height="50" viewBox="0 0 50 50" xmlns="http://www.w3.org/2000/svg"><path d="M4 8a4 4 0 0 1 4-4h17v17a4 4 0 0 1-4 4H4V8Z" fill="#FC868B"/><path d="M4 35a4 4 0 0 1 4-4h11v11a4 4 0 0 1-4 4H4V35Z" fill="#F9464C"/><path d="M25 46h4a4 4 0 0 0 4-4V31h-4a4 4 0 0 0-4 4v11Z" fill="#FBB945"/><path d="M31 17v4a4 4 0 0 0 4 4h11v-4a4 4 0 0 0-4-4H31Z" fill="#088BF5"/><path d="M31 4v4a4 4 0 0 0 4 4h11V8a4 4 0 0 0-4-4H31Z" fill="#2EBCFA"/><path d="M38 46h4a4 4 0 0 0 4-4V31h-4a4 4 0 0 0-4 4v11Z" fill="#F78613"/></svg>
